X: 7
T: The Baltimore Salute
R: reel
M: 4/4
L: 1/8
K: Gmaj
|:B2 ge dBGA | B2 GB AGEG | DGGF GABd | egdB ABGA |
B2 ge dBGA | B2 GB AGEG | DGGF GABd | egdB G2 GA :|
|:BG G2 gG G2 | gBeB dBGA | AGGB d3g | eaag a2 ga |
b2 ab agef | g2 eg dGBd | G2 EG Dege | dBAB G2 GA :|


Tune 1849	Setting 15281

